X:1
T:Title
%%score 1 { 2 | 3 }
L:1/8
Q:1/4=110
M:4/4
K:Eb
V:1 treble nm="Grand Piano, Soprano"
V:2 treble nm="Choir Pad, Pattaya, Leslie G Park, 1912"
V:3 bass 
V:1
 [EG][FA] [GB]2 [Ac]2 [GB]2 | [Ac]2 [Ge]2 [Ae]2 [Ge]2 | [GB]2 [Ac]2 [Ac]2 [Ae]2 | [Ac]2 [GB]6 | %4
w: By~Leslie~G.~Park,~1912 * * * *||||
 [EG][FA] [GB]2 [Ac]2 [GB]2 | [Ac]2 [Ge]2 [Ae]2 [Ge]2 | EF [EG]2 [DF]2 E2 | [DF]2 E6 | %8
w: ||||
 [EG][FA] [GB]6 | [Ge]2 [Fd]6 | [EG]2 [FA]6 | [Ac]2 [GB]6 | [Ge]2 [Fd]2 [Fc]2 [F=A]2 | %13
w: |||||
 [Fc]2 [FB]6 | [EG][FA] [GB]2 [Ac]2 [GB]2 | [Ac]2 [Ge]2 [Ae]2 [Ge]2 | EF [EG]2 [DF]2 E2 | %17
w: ||||
 [DF]2 E6- | E2 z2 z4 |] %19
w: ||
V:2
 B,2 E2 E2 E2 | E2 B,2 C2 B,2 | E2 E2 E2 C2 | E2 E6 | B,2 E2 E2 E2 | E2[K:bass] B,2 C2 B,2 | %6
 G,A, B,2 A,2 G,2 | A,2 G,6 | B,2[K:treble] E2 E2 E2 | B,2 B,2[K:bass] B,2 B,2 | B,2 B,2 B,2 B,2 | %11
 B,2 B,2 B,2 B,2 | B,2 B,2 =A,2 C2 | =A,2 B,6 | B,2[K:treble] E2 E2 E2 | E2 B,2 C2[K:bass] B,2 | %16
 G,A, B,2 A,2 G,2 | A,2 G,6- | G,2 z2 z4 |] %19
V:3
 E,2 E,2 E,2 E,2 | E,2 E,2 E,2 E,2 | E,2 A,,2 A,,2 A,,2 | A,,2 E,6 | E,2 E,2 E,2 E,2 | %5
 E,2 E,2 E,2 E,2 | E,2 B,,2 B,,2 B,,2 | B,,2 E,6 | E,2 E,2 E,2 E,2 | E,2 F,2 B,,2 B,,2 | %10
 B,,2 B,,2 B,,2 B,,2 | B,,2 E,2 E,2 E,2 | E,2 F,2 F,2 F,2 | F,2 D,6 | E,2 E,2 E,2 E,2 | %15
 E,2 E,2 E,2 E,2 | E,2 B,,2 B,,2 B,,2 | B,,2 E,6- | E,2 z2 z4 |] %19

